flaticon/fitness/running-1.svg

<svg xmlns="http://www.w3.org/2000/svg" width="32" height="32" viewBox="0 0 24 24">
    <path d="M 24 19.328125 C 24 17.769531 22.761719 16.527344 21.199219 16.527344 L 6.457031 16.527344 L 7.511719 8.527344 L 7.761719 8.527344 C 8.519531 8.527344 9.28125 8.207031 9.878906 7.648438 C 10.121094 7.40625 10.398438 7.246094 10.71875 7.128906 C 11.078125 7.007812 11.441406 6.929688 11.839844 6.929688 L 13.078125 6.929688 C 13.601562 6.929688 14 6.527344 14 6.007812 L 14 5.449219 C 14 4.929688 13.601562 4.527344 13.078125 4.527344 L 8.320312 4.527344 C 8.039062 4.527344 7.800781 4.328125 7.679688 4.085938 L 6.199219 0.808594 C 6.121094 0.566406 5.921875 0.40625 5.679688 0.328125 C 5.441406 0.246094 5.199219 0.246094 4.960938 0.367188 L 4.28125 0.726562 C 3.839844 0.96875 3.640625 1.488281 3.839844 1.929688 L 5.160156 4.96875 L 4.398438 8.007812 L 2.050781 16.628906 C 0.859375 16.953125 0 18.027344 0 19.328125 C 0 20.75 1.035156 21.910156 2.398438 22.101562 L 2.398438 22.527344 C 2.398438 23.207031 2.921875 23.726562 3.601562 23.726562 L 8 23.726562 C 8.640625 23.726562 9.199219 23.207031 9.199219 22.527344 L 9.199219 22.128906 L 17.601562 22.128906 L 17.601562 22.527344 C 17.601562 23.207031 18.160156 23.726562 18.800781 23.726562 L 20.398438 23.726562 C 21.078125 23.726562 21.601562 23.207031 21.601562 22.527344 L 21.601562 22.097656 C 22.9375 21.902344 24 20.75 24 19.328125 Z M 18.464844 18.722656 C 18.460938 18.734375 18.460938 18.742188 18.457031 18.753906 C 18.453125 18.773438 18.449219 18.796875 18.445312 18.816406 C 18.441406 18.84375 18.4375 18.871094 18.433594 18.898438 C 18.429688 18.90625 18.429688 18.914062 18.429688 18.925781 C 18.421875 18.960938 18.417969 19 18.414062 19.039062 C 18.414062 19.046875 18.414062 19.050781 18.414062 19.058594 C 18.410156 19.097656 18.40625 19.140625 18.402344 19.183594 C 18.402344 19.230469 18.398438 19.277344 18.398438 19.328125 C 18.398438 19.375 18.402344 19.425781 18.402344 19.472656 C 18.40625 19.515625 18.410156 19.558594 18.414062 19.597656 C 18.414062 19.605469 18.414062 19.609375 18.414062 19.617188 C 18.417969 19.65625 18.421875 19.695312 18.429688 19.730469 C 18.429688 19.742188 18.429688 19.75 18.433594 19.757812 C 18.4375 19.785156 18.441406 19.8125 18.445312 19.839844 C 18.449219 19.859375 18.453125 19.878906 18.457031 19.902344 C 18.460938 19.910156 18.460938 19.921875 18.464844 19.933594 C 18.582031 20.476562 18.851562 20.957031 19.230469 21.328125 L 4.769531 21.328125 C 5.148438 20.957031 5.417969 20.476562 5.535156 19.933594 C 5.539062 19.921875 5.539062 19.910156 5.542969 19.902344 C 5.546875 19.878906 5.550781 19.859375 5.554688 19.839844 C 5.558594 19.8125 5.5625 19.785156 5.566406 19.757812 C 5.570312 19.75 5.570312 19.742188 5.570312 19.730469 C 5.578125 19.695312 5.582031 19.65625 5.585938 19.617188 C 5.585938 19.609375 5.585938 19.605469 5.585938 19.597656 C 5.589844 19.558594 5.59375 19.515625 5.597656 19.472656 C 5.597656 19.425781 5.601562 19.375 5.601562 19.328125 C 5.601562 19.277344 5.597656 19.230469 5.597656 19.183594 C 5.59375 19.140625 5.589844 19.097656 5.585938 19.058594 C 5.585938 19.050781 5.585938 19.046875 5.585938 19.039062 C 5.582031 19 5.578125 18.960938 5.570312 18.925781 C 5.570312 18.914062 5.570312 18.90625 5.566406 18.898438 C 5.5625 18.871094 5.558594 18.84375 5.554688 18.816406 C 5.550781 18.796875 5.546875 18.773438 5.542969 18.753906 C 5.539062 18.742188 5.539062 18.734375 5.535156 18.722656 C 5.417969 18.179688 5.148438 17.699219 4.769531 17.328125 L 19.230469 17.328125 C 18.851562 17.699219 18.582031 18.179688 18.464844 18.722656 Z M 5.640625 16.527344 L 2.921875 16.527344 L 3.140625 15.722656 C 3.160156 15.726562 3.179688 15.726562 3.199219 15.726562 L 4.398438 15.726562 C 4.601562 15.726562 4.800781 15.566406 4.800781 15.328125 C 4.800781 15.085938 4.640625 14.929688 4.398438 14.929688 L 3.359375 14.929688 L 3.582031 14.128906 C 3.585938 14.128906 3.59375 14.128906 3.601562 14.128906 L 4.800781 14.128906 C 5 14.128906 5.199219 13.96875 5.199219 13.726562 C 5.199219 13.488281 5.039062 13.328125 4.800781 13.328125 L 3.800781 13.328125 L 5.121094 8.527344 L 6.71875 8.527344 Z M 4.558594 1.609375 C 4.519531 1.527344 4.558594 1.488281 4.601562 1.449219 L 5.28125 1.085938 C 5.320312 1.085938 5.320312 1.085938 5.359375 1.085938 C 5.398438 1.085938 5.441406 1.085938 5.441406 1.128906 L 6.921875 4.40625 C 7.199219 4.929688 7.71875 5.289062 8.320312 5.289062 L 13.121094 5.289062 C 13.199219 5.289062 13.238281 5.328125 13.238281 5.40625 L 13.238281 5.96875 C 13.238281 6.046875 13.199219 6.085938 13.121094 6.085938 L 11.878906 6.085938 C 11.398438 6.085938 10.921875 6.167969 10.480469 6.328125 C 10.039062 6.488281 9.640625 6.726562 9.320312 7.046875 C 8.878906 7.488281 8.359375 7.726562 7.800781 7.726562 L 5.320312 7.726562 L 6 5.046875 C 6 4.929688 6 4.808594 5.921875 4.726562 Z M 0.800781 19.328125 C 0.800781 18.207031 1.679688 17.328125 2.800781 17.328125 C 3.878906 17.328125 4.800781 18.207031 4.800781 19.328125 C 4.800781 20.449219 3.921875 21.328125 2.800781 21.328125 C 1.679688 21.328125 0.800781 20.449219 0.800781 19.328125 Z M 8.398438 22.527344 C 8.398438 22.769531 8.238281 22.929688 8 22.929688 L 3.601562 22.929688 C 3.359375 22.929688 3.199219 22.769531 3.199219 22.527344 L 3.199219 22.128906 L 8.398438 22.128906 Z M 20.800781 22.527344 C 20.800781 22.769531 20.601562 22.929688 20.398438 22.929688 L 18.800781 22.929688 C 18.558594 22.929688 18.398438 22.726562 18.398438 22.527344 L 18.398438 22.128906 L 20.800781 22.128906 Z M 21.199219 21.328125 C 20.078125 21.328125 19.199219 20.449219 19.199219 19.328125 C 19.199219 18.207031 20.078125 17.328125 21.199219 17.328125 C 22.28125 17.328125 23.199219 18.207031 23.199219 19.328125 C 23.199219 20.449219 22.320312 21.328125 21.199219 21.328125 Z M 21.199219 21.328125"/>
    <path d="M11.601562 19.726562L12.398438 19.726562C12.601562 19.726562 12.800781 19.566406 12.800781 19.328125 12.800781 19.085938 12.640625 18.929688 12.398438 18.929688L11.601562 18.929688C11.359375 18.929688 11.199219 19.085938 11.199219 19.328125 11.199219 19.566406 11.359375 19.726562 11.601562 19.726562zM14 19.726562L14.800781 19.726562C15 19.726562 15.199219 19.566406 15.199219 19.328125 15.199219 19.085938 15.039062 18.929688 14.800781 18.929688L14 18.929688C13.761719 18.929688 13.601562 19.085938 13.601562 19.328125 13.601562 19.566406 13.761719 19.726562 14 19.726562zM16.398438 19.726562L17.199219 19.726562C17.398438 19.726562 17.601562 19.566406 17.601562 19.328125 17.601562 19.085938 17.441406 18.929688 17.199219 18.929688L16.398438 18.929688C16.160156 18.929688 16 19.085938 16 19.328125 16 19.566406 16.160156 19.726562 16.398438 19.726562zM9.199219 19.726562L10 19.726562C10.199219 19.726562 10.398438 19.566406 10.398438 19.328125 10.398438 19.085938 10.238281 18.929688 10 18.929688L9.199219 18.929688C8.960938 18.929688 8.800781 19.085938 8.800781 19.328125 8.800781 19.566406 8.960938 19.726562 9.199219 19.726562zM6.800781 19.726562L7.601562 19.726562C7.800781 19.726562 8 19.566406 8 19.328125 8 19.085938 7.839844 18.929688 7.601562 18.929688L6.800781 18.929688C6.558594 18.929688 6.398438 19.085938 6.398438 19.328125 6.398438 19.566406 6.558594 19.726562 6.800781 19.726562zM6.800781 19.726562"/>
</svg>

<svg xmlns="http://www.w3.org/2000/svg" width="32" height="32" viewBox="0 0 24 24">
    <path d="M24 19.328c0-1.558-1.238-2.8-2.8-2.8H6.456l1.055-8h.25c.758 0 1.52-.321 2.117-.88.242-.242.52-.402.84-.52.36-.12.722-.198 1.12-.198h1.24A.907.907 0 0 0 14 6.008v-.559a.907.907 0 0 0-.922-.922H8.32c-.28 0-.52-.199-.64-.441L6.2.809C6.12.566 5.921.406 5.68.329a.89.89 0 0 0-.72.038l-.679.36c-.441.242-.64.761-.441 1.203l1.32 3.039-.762 3.039-2.347 8.62A2.777 2.777 0 0 0 0 19.329a2.785 2.785 0 0 0 2.398 2.774v.425c0 .68.524 1.2 1.204 1.2H8c.64 0 1.2-.52 1.2-1.2v-.398h8.402v.398c0 .68.558 1.2 1.199 1.2h1.597c.68 0 1.204-.52 1.204-1.2v-.43A2.808 2.808 0 0 0 24 19.329zm-5.535-.605c-.004.011-.004.02-.008.03l-.012.063-.011.082c-.004.008-.004.016-.004.028-.008.035-.012.074-.016.113v.02a14.4 14.4 0 0 0-.012.125c0 .046-.004.093-.004.144 0 .047.004.098.004.145l.012.125v.02c.004.038.008.077.016.112 0 .012 0 .02.004.028l.011.082.012.062c.004.008.004.02.008.032.117.543.387 1.023.765 1.394H4.77c.378-.371.648-.851.765-1.394.004-.012.004-.024.008-.032l.012-.062.011-.082c.004-.008.004-.016.004-.028.008-.035.012-.074.016-.113v-.02l.012-.124c0-.047.004-.098.004-.145 0-.05-.004-.098-.004-.144a14.4 14.4 0 0 0-.012-.125v-.02c-.004-.039-.008-.078-.016-.113 0-.012 0-.02-.004-.028l-.011-.082-.012-.062c-.004-.012-.004-.02-.008-.031a2.761 2.761 0 0 0-.765-1.395h14.46a2.761 2.761 0 0 0-.765 1.395zM5.64 16.527H2.92l.22-.804c.02.004.039.004.058.004h1.2a.4.4 0 0 0 .402-.399c0-.242-.16-.398-.403-.398H3.36l.223-.801h1.219a.4.4 0 0 0 .398-.402c0-.239-.16-.399-.398-.399h-1l1.32-4.8H6.72zM4.559 1.61c-.04-.082 0-.12.043-.16l.68-.363h.077c.04 0 .082 0 .082.043l1.48 3.277c.278.524.798.883 1.4.883h4.8c.078 0 .117.04.117.117v.563c0 .078-.039.117-.117.117H11.88c-.48 0-.957.082-1.399.242-.44.16-.84.399-1.16.719-.441.441-.96.68-1.52.68H5.32L6 5.047c0-.117 0-.238-.078-.32zM.8 19.33c0-1.122.879-2 2-2 1.078 0 2 .878 2 2 0 1.12-.88 2-2 2-1.121 0-2-.88-2-2zm7.597 3.198c0 .243-.16.403-.398.403H3.602c-.243 0-.403-.16-.403-.403v-.398h5.2zm12.403 0c0 .243-.2.403-.403.403h-1.597a.404.404 0 0 1-.403-.403v-.398h2.403zm.398-1.199c-1.12 0-2-.879-2-2s.88-2 2-2c1.082 0 2 .879 2 2s-.879 2-2 2zm0 0"/>
    <path d="M11.602 19.727h.796a.4.4 0 0 0 .403-.399c0-.242-.16-.398-.403-.398h-.796c-.243 0-.403.156-.403.398 0 .238.16.399.403.399zm0 0M14 19.727h.8a.4.4 0 0 0 .4-.399c0-.242-.16-.398-.4-.398H14c-.238 0-.398.156-.398.398 0 .238.16.399.398.399zm0 0M16.398 19.727h.801c.2 0 .403-.16.403-.399 0-.242-.16-.398-.403-.398h-.8c-.239 0-.399.156-.399.398 0 .238.16.399.398.399zm0 0M9.2 19.727h.8a.4.4 0 0 0 .398-.399c0-.242-.16-.398-.398-.398h-.8c-.24 0-.4.156-.4.398 0 .238.16.399.4.399zm0 0M6.8 19.727h.802A.4.4 0 0 0 8 19.328c0-.242-.16-.398-.398-.398H6.8c-.242 0-.403.156-.403.398 0 .238.16.399.403.399zm0 0"/>
</svg>
